X:1
T:Title
%%score { ( 1 3 ) | ( 2 4 ) }
L:1/8
Q:1/4=116
M:3/4
K:E
V:1 treble nm="Grand Piano"
V:3 treble 
V:2 bass 
V:4 bass 
V:1
 B2 B3 c | B2 G2 E2 | [DG]2 [DG]2 [DF]2 | E4 B2 | c2 c2 c2 | A2 B2 c2 | B2 B2 G2 | [DF]4 [DB]2 | %8
w: Chas.~H.~Gabriel * *||||||||
 B2 B3 c | B2 G2 E2 | [DG]2 [DG]2 [DF]2 | E4 F2 | G2 [GB]2 [=Gc]2 | d2 c2 B2 | c2 B2 ^A2 | %15
w: |||||||
 z2 c2 d2 | [Ge]2 [Ge]3 [Gf] | [Ge]2 [Gc]4 | [GB]2 [GB]3 [Gc] | [GB]2 [EG]4 | [DB]2 [DF]2 [EG]2 | %21
w: ||||||
 [FA]2 [GB]2 [DAc]2 | B2- [GB-]2 [GB-]2 | [GB-]2 [Bc]2 d2 | [Ge]2 [Ge]3 [Gf] | [Ge]2 [Gc]4 | %26
w: |||||
 [GB]2 [GB]3 [Gc] | [GB]2 [EG]4 | [DB]2 [DF]2 [EG]2 | [FA]2 [Dc]2 [DB]2 | E6- | E4 z2 |] %32
w: ||||||
V:2
 [E,G,E]2 [E,G,E]3 [E,A,E] | [E,G,E]2 [E,B,E]2 [E,G,]2 | [B,,B,]2 [B,,B,]2 [B,,A,]2 | %3
 [E,G,]4 [E,G,E]2 | [A,E]2 [A,E]2 [A,E]2 | [A,CE]2 [A,B,E]2 [A,E]2 | [E,G,E]2 [E,G,E]2 [E,G,E]2 | %7
 [B,,B,]4 [B,,A,]2 | [E,G,E]2 [E,G,E]3 [E,A,E] | [E,G,E]2 [E,B,E]2 [E,G,]2 | %10
 [B,,B,]2 [B,,B,]2 [B,,A,]2 | [C,G,C]4 [D,B,]2 | [E,B,E]2 [E,B,]2 [E,B,]2 | %13
 [F,B,F]2 [F,^A,E]2 [F,B,D]2 | [F,^A,E]2 [F,B,D]2 [F,CE]2 | z2[K:treble] E2 F2 | %16
 [E,B,]2 [E,B,]3 [E,B,] | [E,B,]2 [E,C]4 | [E,E]2 [E,E]3 [E,E] | [E,E]2 [E,B,]4 | %20
 [B,,B,]2 [B,,B,]2 [B,,B,]2 | [B,,B,]2 [B,,B,]2 B,,2 | [E,E]2 [E,E]2 [E,E]2 | z2[K:treble] F2 G2 | %24
 [E,B,]2 [E,B,]3 [E,B,] | [E,B,]2 [E,C]4 | [E,E]2 [E,E]3 [E,E] | [E,E]2 [E,B,]4 | %28
 [B,,B,]2 [B,,B,]2 [B,,B,]2 | [B,,B,]2 [B,,A,]2 [B,,A,]2 | [E,G,B,]2 [E,G,]2 [E,A,]2 | %31
 [E,G,]4 z2 |] %32
V:3
 x6 | x6 | x6 | x6 | x6 | x6 | x6 | x6 | x6 | x6 | x6 | x6 | x6 | x6 | x6 | [B,DB]4 z2 | x6 | x6 | %18
 x6 | x6 | x6 | x6 | G2 z2 z2 | x6 | x6 | x6 | x6 | x6 | x6 | x6 | z2 B,2 C2 | B,4 z2 |] %32
V:4
 x6 | x6 | x6 | x6 | x6 | x6 | x6 | x6 | x6 | x6 | x6 | x6 | x6 | x6 | x6 | B,,4[K:treble] z2 | %16
 x6 | x6 | x6 | x6 | x6 | x6 | x6 | [E,E]4[K:treble] z2 | x6 | x6 | x6 | x6 | x6 | x6 | x6 | x6 |] %32

